X:1
T:Title
%%score { ( 1 3 ) | ( 2 4 ) }
L:1/8
M:4/4
K:Ab
V:1 treble nm="Grand Piano"
V:3 treble 
V:2 bass 
V:4 bass 
V:1
 z4 z2[Q:1/4=96] [CE]>[CE] | [CA]>[CA] [CA]>[CA] [CA]>[EA] [DG]>[CA] | B>B B>B B>B A>[GB] | %3
 c>c c>c c>e d>c | [EGB]6[K:bass] [E,E]>[E,DE] |[M:3/4][K:treble] [CA]>[CA] [CA]>[CA] [CA]>[EA] | %6
[M:1/4] [DG]>[CA] |[M:4/4] B>B B>B B>B A>[GB] | c>c c>e d>c [DFB]>[DGB] | %9
[M:7/8] A2- [FA-]>[FA-] [EA]3 |[M:1/4] c>d |[M:4/4] e4 [Ac]2 z2 | d4 [GB]2 z2 | c>c c>c c>e d>c | %14
 [EGB]6[K:bass] [E,E]>[E,DE] |[M:3/4][K:treble] [CA]>[CA] [CA]>[CA] [CA]>[EA] |[M:1/4] [DG]>[CA] | %17
[M:4/4] B>B B>B B>B A>[GB] | c>c c>e d>c [DFB]>[DGB] |[M:7/8] A-A-A- A- A3 |] %20
V:2
 z4 z2 [A,,A,]>[A,,A,] | [A,,E,]>[A,,E,] [A,,E,]>[A,,E,] [A,,E,]>[C,A,] [B,,E,]>[A,,A,] | %2
 [E,G,E]>[E,G,E] [E,G,E]>[E,G,E] [E,G,E]>[G,B,E] [F,CF]>[E,E] | %3
 [A,EA]>[A,EA] [A,EA]>[A,EA] [A,EA]>[CEA] [B,EG]>[A,EA] | E,2 E,>F, E,D, C,>B,, | %5
[M:3/4] [A,,E,]>[A,,E,] [A,,E,]>[A,,E,] [A,,E,]>[C,A,] |[M:1/4] [B,,E,]>[A,,A,] | %7
[M:4/4] [E,G,E]>[E,G,E] [E,G,E]>[E,G,E] [E,G,E]>[G,B,E] [F,CF]>[E,E] | %8
 [A,EA]>[A,EA] [A,EA]>[CEA] [B,EG]>[A,EA][K:bass] D,>E, |[M:7/8] z2 D>D C3 |[M:1/4][K:treble] A>B | %11
[M:4/4] c4 z4 | B4[K:bass] z4 | [A,EA]>[A,EA] [A,EA]>[A,EA] [A,EA]>[CEA] [B,EG]>[A,EA] | %14
 E,2 E,>F, E,D, C,>B,, |[M:3/4] [A,,E,]>[A,,E,] [A,,E,]>[A,,E,] [A,,E,]>[C,A,] | %16
[M:1/4] [B,,E,]>[A,,A,] |[M:4/4] [E,G,E]>[E,G,E] [E,G,E]>[E,G,E] [E,G,E]>[G,B,E] [F,CF]>[E,E] | %18
 [A,EA]>[A,EA] [A,EA]>[CEA] [B,EG]>[A,EA][K:bass] D,>E, |[M:7/8] z2 D>D C3 |] %20
V:3
 x8 | x8 | x8 | x8 | x6[K:bass] x2 |[M:3/4][K:treble] x6 |[M:1/4] x2 |[M:4/4] x8 | x8 | %9
[M:7/8] C2 z z z z2 |[M:1/4] x2 |[M:4/4] z2 E>E EE B>c | z2 E>E EE A>[GB] | x8 | x6[K:bass] x2 | %15
[M:3/4][K:treble] x6 |[M:1/4] x2 |[M:4/4] x8 | x8 |[M:7/8] C2 F>F E3 |] %20
V:4
 x8 | x8 | x8 | x8 | x8 |[M:3/4] x6 |[M:1/4] x2 |[M:4/4] x8 | x6[K:bass] x2 | %9
[M:7/8] A,,-A,,-A,,- A,,- A,,3 |[M:1/4][K:treble] x2 |[M:4/4] z2 A,>A, A,A, G>A | %12
 z2[K:bass] E,>E, E,E, [F,C]>[E,E] | x8 | x8 |[M:3/4] x6 |[M:1/4] x2 |[M:4/4] x8 | x6[K:bass] x2 | %19
[M:7/8] A,,-A,,-A,,- A,,- A,,3 |] %20

